X:1
T:God’s Great Redemptive Plan
T:God’s Great Redemptive Plan
T:J. C. Brewington
T:Frank Monford Graham, 1908
T:Public Domain Courtesy of the Cyber Hymnal™
T:Public Domain Courtesy of the Cyber Hymnal™
C:J. C. Brewington
Z:Public Domain
Z:Courtesy of the Cyber Hymnal™
%%score 1 ( 2 3 )
L:1/8
Q:1/4=100
M:4/4
K:Bb
V:1 treble 
V:2 bass 
V:3 bass 
V:1
 [DF][EG] | [DB]2 [DB]2 [DB][DF][EG][EA] | [DB]2 [EB]2 [DB]2 [FB][Fc] | %3
w: 1.~I am|prais- ing God for His re-|demp- tive plan, For it|
w: 2.~Wor- thy|is the Lamb who shed His|pre- cious blood, On the|
w: 3.~Sin- ner,|some day you will seek the|Sav- ior’s face, And you|
 [Fd]2 [Fd]2 [Ge][Fd][Fc][=EB] | [Fc]6 [DF][EG] | [DB]2 [DB]2 [DB][DF][EG][EA] | %6
w: takes in all the world I|see; Thou- sands|now are hap- py in His|
w: cru- el cross of Cal- va-|ry; Sin- ners,|don’t re- ject, ac- cept Him|
w: can- not find Him an- y-|where; For the|day of grace for- ev- er|
 [DB]2 [EB]2 [DB]2 [FB][Fc] | [Fd]2 [Fd]2 [Fd]2 [Ec]2 | [DB]6 ||"^Refrain" [Bd][Bd] | %10
w: pre- cious love, For their|souls from sin are|free.||
w: while you can, And be|saved e- ter- nal-|ly.|Pre- cious|
w: will be passed, You’ll be|left to quake and|fear.||
 [Bf]6 [Bf][Bg] | [Bd]2 [Bd]2 [Bd]2 [Fd][^Fc] | [GB]6 [FA][GB] | [Ac]6 [Fd][Ec] | %14
w: ||||
w: blood, cleans- ing|ev- en me, Pre- cious|blood, flow- ing|free, Ev- ery|
w: ||||
 [DB]2 [DB]2 [DB][DF][EG][EA] | [DB]2 [EB]2 [DB]2 [DB][Ec] | [Fd]2 [Fd]2 [Fd]2 [Ec]2 | [DB]6 |] %18
w: ||||
w: soul may have this cleans- ing|blood ap- plied, And be|whol- ly sanc- ti-|fied.|
w: ||||
V:2
 [B,,B,][B,,B,] | [B,,F,]2 [B,,F,]2 [B,,F,][B,,B,][B,,B,][B,,B,] | %2
w: ||
 [B,,F,]2 [B,,G,]2 [B,,F,]2 [D,B,][F,A,] | B,2 B,2 B,B,[A,C][G,C] | [F,A,]6 [B,,B,][B,,B,] | %5
w: |Cleans- ing blood, cleans- * *||
 [B,,F,]2 [B,,F,]2 [B,,F,][B,,B,][B,,B,][B,,B,] | [B,,F,]2 [B,,G,]2 [B,,F,]2 [D,B,][F,A,] | %7
w: ||
 B,2 B,2 [F,B,]2 [F,A,]2 | [B,,B,]6 || B,[B,D] | [B,D]2 [B,D][B,D] [B,D]2 [B,D][B,E] | %11
w: ing blood, * *||||
 [B,F]2 [B,F]2 [B,F]2 [B,F][B,E] | [G,D]2 [G,D][G,D] [G,D]2 [F,F][C,=E] | (D4 C2) [F,B,][F,A,] | %14
w: |||
 [B,,B,]2 [B,,F,]2 [B,,F,][B,,B,][B,,B,][B,,B,] | [B,,F,]2 [B,,G,]2 [B,,F,]2 [B,,B,][B,,B,] | %16
w: ||
 [F,B,]2 [F,B,]2 [F,B,]2 [F,A,]2 | [B,,B,]6 |] %18
w: ||
V:3
 x2 | x8 | x8 | B,2 B,2 B,B, x2 | x8 | x8 | x8 | B,2 B,2 x4 | x6 || B, x | x8 | x8 | x8 | F,6 x2 | %14
 x8 | x8 | x8 | x6 |] %18

